assets/images/arrw_left.svg

<svg width="101" height="59" viewBox="0 0 101 59" fill="none" xmlns="http://www.w3.org/2000/svg">
<path d="M56.2026 25.6527C64.7737 30.4644 67.7969 31.6066 74.9184 36.7022C82.1561 41.881 86.7333 45.1957 92.7752 52.307C95.6502 54.4828 90.6045 60.7271 88.1389 57.0913C82.6205 52.8675 75.9728 48.4262 70.4544 44.2024C64.936 39.9786 57.9557 36.4091 51.69 33.3099C41.601 28.3196 31.1176 26.1035 21.4488 25.2811C26.9672 29.5049 29.4329 33.1408 31.8986 36.7766C34.3643 40.4125 30.9301 44.1806 27.1606 42.3732C21.2966 37.1886 21.397 36.6673 17.0328 31.7716C15.2792 29.8044 14.1822 28.5191 10.6638 25.4083L6.18531 22.3414C3.52653 19.7082 3.97837 17.3621 5.89475 15.9635C16.2269 11.6315 23.9169 3.62971 34.34 5.09649C37.3927 5.68443 37.6684 6.8189 36.5487 9.30671C34.04 11.8805 33.2012 12.53 26.5087 14.402L21.5572 15.8815C34.3551 15.1854 44.5788 20.253 56.2026 25.6527Z" fill="#FD2828"/>
</svg>

<svg width="101" height="59" fill="none" xmlns="http://www.w3.org/2000/svg"><path d="M56.203 25.653c8.57 4.811 11.594 5.954 18.715 11.05 7.238 5.178 11.815 8.493 17.857 15.604 2.875 2.176-2.17 8.42-4.636 4.784-5.518-4.224-12.166-8.665-17.685-12.889C64.936 39.98 57.956 36.41 51.69 33.31c-10.089-4.99-20.572-7.207-30.241-8.029 5.518 4.224 7.984 7.86 10.45 11.496 2.465 3.636-.969 7.404-4.738 5.596-5.864-5.184-5.764-5.706-10.128-10.601-1.754-1.968-2.85-3.253-6.37-6.364l-4.478-3.067c-2.658-2.633-2.207-4.979-.29-6.378C16.227 11.633 23.917 3.63 34.34 5.096c3.053.588 3.328 1.723 2.209 4.21-2.509 2.575-3.348 3.224-10.04 5.096l-4.952 1.48c12.798-.697 23.022 4.371 34.646 9.77z" fill="#FD2828"/></svg>
